X:1
T:Title
%%score ( 1 2 3 ) { 4 | 5 }
L:1/8
Q:1/4=92
M:2/4
K:G
V:1 treble nm="Grand Piano, Soprano"
V:2 treble 
V:3 treble 
V:4 bass nm="Choir Pad, Miletina, 87.87 D"
V:5 bass 
V:1
 [DG]>[DA] [GB]>[Gd] | [Gd]>[Ge] [Gd]2 | [GB]>[FA] [EG]>[EG] | [EG]>[FA] [GB]2 | %4
w: By~Frank~Monford~Graham,~1914 * * *||||
 [GB]>[Gc] [Gd]>[Gd] | [Gd]>[Ge] [Gd]2 | [Gd]>[Gd] [GB]>[DA] | [DG]>[GB] [FA]2 | %8
w: ||||
 [DG]>[DA] [GB]>[Gd] | [Gd]>[Ge] [Gd]2 | [GB]>[FA] [EG]>[EG] | [EG]>[FA] [GB]2 | %12
w: ||||
 [GB]>[Gc] [Gd]>[Gd] | [Gd]>[Ge] [Gd]2 | [Gd]>[Gd] [GB]>[DG] | [GB]>[DA] [DG]2 |[M:4/4] z2 B6 | %17
w: |||||
 z2 G6 | [DG]>[GB] d->[Gd-] [Gd-]>[Gd-] [Gd]>[GB] | (3[G-B][GA]G A2- [EA-]>[EA-] [FA]2 | %20
w: |||
 [DG]>[DA] B->[GB-] [GB-]>[GB-] [GB]>[GB] | z2 c6 | z2 B6 | z2 G6- | G2 z2 z4 |] %25
w: |||||
V:2
 x4 | x4 | x4 | x4 | x4 | x4 | x4 | x4 | x4 | x4 | x4 | x4 | x4 | x4 | x4 | x4 | %16
[M:4/4] [DG]>[DA] G>G G>G G>[FA] | [GB]>[DA] D>D E>E D2 | z2 G2 z4 | z2 F2 z4 | z2 G2 z4 | %21
 [FA]>[EB] E2 E>E E2 | [Gc]>[Gc] G>G G>G z A/G/ | [GB]>[DA] D>D E>E D2- | D2 z2 z4 |] %25
V:3
 x4 | x4 | x4 | x4 | x4 | x4 | x4 | x4 | x4 | x4 | x4 | x4 | x4 | x4 | x4 | x4 |[M:4/4] x8 | x8 | %18
 x8 | x8 | x8 | x8 | z4 z2 G2 | x8 | x8 |] %25
V:4
 B,>C D>B, | B,>[K:treble]C B,2 | D>C B,>[K:bass]B, | B,>C D2 | G,>A, B,>B, | B,>C B,2 | %6
 B,>B,[K:treble] D>C | B,>D D2 | B,>C D>[K:bass]B, | B,>C B,2 | D>C B,>B, | B,>C D2 | G,>A, B,>B, | %13
 B,>C B,2 | B,>B,[K:treble] D>B, | D>C B,2 |[M:4/4] B,>C D>D D>D D>D | D>C[K:bass] B,>B, C>C B,2 | %18
 B,>D B,>B, B,>B, B,>[K:treble]D | D>D D2 ^C>C D2 | B,>^C D>D D>D D>D | %21
 D>[K:bass]G, G,2 G,>G, G,2 | E>E D>D D>D D>D | D>C[K:bass] B,>B, C>C B,2- | B,2 z2 z4 |] %25
V:5
 G,>G, G,>G, | G,>G, G,2 | G,>D, E,>E, | E,>D, G,2 | z z/ G,/ G,>G, | G,>G, G,2 | G,>G, G,>G, | %7
 G,>G, D,2 | G,>G, G,>G, | G,>G, G,2 | G,>D, E,>E, | E,>D, G,2 | z z/ G,/ G,>G, | G,>G, G,2 | %14
 G,>G, D,>D, | D,>D, G,2 |[M:4/4] G,>G, G,>G, G,>G, D,>D, | D,>D, G,>G, G,>G, G,2 | %18
 G,>G, G,>G, G,>G, G,>G, | G,>G, D,2 A,,>A,, D,2 | G,>G, G,>G, G,>G, G,>G, | D,2 C,2 C,>C, C,2 | %22
 C,>C, D,>D, D,>D, D,>D, | D,>D, G,6- | G,2 z2 z4 |] %25

